img/footer-phone-call.svg

<svg width="23" height="23" viewBox="0 0 23 23" fill="none" xmlns="http://www.w3.org/2000/svg">
<path d="M19.1666 10.5408H21.0833C21.0833 5.62454 17.3717 1.91675 12.4487 1.91675V3.83341C16.3415 3.83341 19.1666 6.65379 19.1666 10.5408Z" fill="#BDBDBD"/>
<path d="M12.4584 7.66657C14.4737 7.66657 15.3334 8.5262 15.3334 10.5416H17.25C17.25 7.45095 15.549 5.7499 12.4584 5.7499V7.66657ZM15.7378 12.8828C15.5536 12.7154 15.3116 12.6261 15.0629 12.6338C14.8142 12.6415 14.5782 12.7456 14.4047 12.924L12.1114 15.2824C11.5594 15.177 10.4497 14.8311 9.30736 13.6916C8.16503 12.5483 7.81907 11.4357 7.71653 10.8875L10.0731 8.59328C10.2517 8.41994 10.3559 8.1839 10.3636 7.9351C10.3713 7.68631 10.2819 7.44428 10.1143 7.26024L6.57323 3.36653C6.40557 3.18191 6.17254 3.06993 5.92363 3.05436C5.67473 3.03879 5.42956 3.12087 5.24019 3.28315L3.16061 5.06661C2.99492 5.2329 2.89603 5.45421 2.88269 5.68857C2.86832 5.92815 2.59423 11.6034 6.9949 16.006C10.834 19.8441 15.6429 20.1249 16.9673 20.1249C17.1609 20.1249 17.2797 20.1192 17.3114 20.1172C17.5457 20.1041 17.7669 20.0048 17.9324 19.8384L19.7149 17.7578C19.8773 17.5686 19.9595 17.3235 19.9441 17.0746C19.9287 16.8257 19.8169 16.5926 19.6324 16.4248L15.7378 12.8828Z" fill="#BDBDBD"/>
</svg>

<svg width="23" height="23" fill="none" xmlns="http://www.w3.org/2000/svg"><path d="M19.167 10.54h1.916c0-4.915-3.711-8.623-8.634-8.623v1.916c3.893 0 6.718 2.82 6.718 6.708Z" fill="#BDBDBD"/><path d="M12.458 7.667c2.016 0 2.875.86 2.875 2.875h1.917c0-3.091-1.701-4.792-4.792-4.792v1.917Zm3.28 5.216a.96.96 0 0 0-1.333.041l-2.294 2.358c-.552-.105-1.661-.45-2.804-1.59-1.142-1.144-1.488-2.256-1.59-2.805l2.356-2.294a.959.959 0 0 0 .041-1.333l-3.54-3.893a.958.958 0 0 0-1.334-.084L3.16 5.067a.958.958 0 0 0-.277.622c-.015.24-.289 5.914 4.112 10.317 3.839 3.838 8.648 4.119 9.972 4.119.194 0 .313-.006.344-.008a.95.95 0 0 0 .621-.279l1.783-2.08a.958.958 0 0 0-.083-1.333l-3.894-3.542Z" fill="#BDBDBD"/></svg>
